tools/download-figma-icons/icons/outlined-medium/pot-with-spaghetti.svg

<svg width="24" height="24" viewBox="0 0 24 24" fill="none" xmlns="http://www.w3.org/2000/svg">
<path d="M21.72 10.3273H21.0375V9.74983C21.0375 9.33733 20.7 8.99983 20.2875 8.99983H13.995L11.1825 1.24483C11.04 0.854825 10.6125 0.652325 10.2225 0.794825C9.8325 0.937325 9.63 1.36483 9.7725 1.75483L10.635 4.13983L8.1075 0.337325C7.875 -0.00767504 7.41 -0.097675 7.0725 0.127325C6.735 0.352325 6.6375 0.824825 6.8625 1.16983L12.075 9.00733H11.6175L6.6 1.82233C6.36 1.48483 5.895 1.40233 5.5575 1.63483C5.22 1.87483 5.1375 2.33983 5.37 2.67733L7.455 5.66233L3.525 1.71733C3.2325 1.42483 2.76 1.42483 2.4675 1.71733C2.175 2.00983 2.175 2.48233 2.4675 2.77483L6.3825 6.69733L1.965 3.16483C1.6425 2.90983 1.17 2.96233 0.915 3.28483C0.66 3.60733 0.7125 4.07983 1.035 4.34233L1.29 4.54483C1.1775 4.58233 1.065 4.63483 0.975 4.72483C0.6825 5.01733 0.6825 5.48983 0.975 5.78233L4.1925 8.99983H3.72C3.3075 8.99983 2.97 9.33733 2.97 9.74983V10.3273H2.2875C1.155 10.3273 0.75 11.9248 0.75 13.4098C0.75 14.8948 1.155 16.4998 2.28 16.4998H2.9625V20.3023C2.9625 22.3423 4.62 23.9998 6.66 23.9998H17.3475C19.3875 23.9998 21.045 22.3423 21.045 20.3023V16.4998H21.7275C22.8525 16.4998 23.2575 14.9023 23.2575 13.4098C23.2575 11.9173 22.8525 10.3273 21.7275 10.3273H21.72ZM2.505 14.9998C2.3925 14.7598 2.25 14.1973 2.25 13.4098C2.25 12.6223 2.3925 12.0598 2.505 11.8273H2.9625V14.9998H2.505ZM4.1025 6.79483L6.855 8.99983H6.3075L4.11 6.79483H4.1025ZM19.545 20.2948C19.545 21.5098 18.5625 22.4923 17.3475 22.4923H6.6525C5.4375 22.4923 4.455 21.5023 4.455 20.2948V10.4923H19.5375V20.2948H19.545ZM21.5025 14.9923H21.045V11.8198H21.5025C21.615 12.0598 21.7575 12.6223 21.7575 13.4023C21.7575 14.1823 21.615 14.7523 21.5025 14.9923Z" fill="black"/>
</svg>

<svg xmlns="http://www.w3.org/2000/svg" width="24" height="24" fill="none" viewBox="0 0 24 24"><path fill="currentColor" d="M21.72 10.327h-.682V9.75a.75.75 0 0 0-.75-.75h-6.293l-2.812-7.755a.75.75 0 0 0-.96-.45.75.75 0 0 0-.45.96l.862 2.385L8.108.337a.75.75 0 0 0-1.036-.21.763.763 0 0 0-.21 1.043l5.213 7.837h-.457L6.6 1.822a.755.755 0 0 0-1.042-.187.755.755 0 0 0-.188 1.042l2.085 2.985-3.93-3.945a.747.747 0 1 0-1.057 1.058l3.915 3.922-4.418-3.532a.75.75 0 0 0-1.05.12.76.76 0 0 0 .12 1.057l.255.203a.8.8 0 0 0-.315.18.747.747 0 0 0 0 1.057L4.193 9H3.72a.75.75 0 0 0-.75.75v.577h-.683C1.156 10.327.75 11.925.75 13.41s.405 3.09 1.53 3.09h.683v3.802A3.7 3.7 0 0 0 6.66 24h10.688a3.7 3.7 0 0 0 3.697-3.698V16.5h.682c1.125 0 1.53-1.598 1.53-3.09 0-1.493-.405-3.083-1.53-3.083zM2.505 15c-.112-.24-.255-.803-.255-1.59 0-.788.143-1.35.255-1.583h.458V15zm1.598-8.205L6.855 9h-.548L4.11 6.795zm15.442 13.5a2.196 2.196 0 0 1-2.198 2.197H6.653a2.2 2.2 0 0 1-2.197-2.197v-9.803h15.083v9.803zm1.957-5.303h-.457V11.82h.457c.113.24.256.802.256 1.582s-.143 1.35-.255 1.59"/></svg>
